X:913
T:Sound of Mull, Harmony
S:Neil Paterson, Milnathort
Z:Nigel Gatherer
M:3/4
L:1/4
K:D
f | fdf | f2d | gfd | f2f | g>fg | ffd | c3- | c
fg | aaa | a2g | ffd | f2d | AdA | G>AG | F3- | F2 :|
